X: 6578
T: Cathy's Fling
R: barndance
M: 4/4
K: Cmajor
GA (3BAG e2e2|GA (3BAG e2e2|fedc (3BcB A2|dcBA (3GAG E2|
GA (3BAG e2e2|GA (3BAG e2e2|fedc (3BcB A2|1 d2c2c3G:|2 d2c2c2(3def||
|:g2g2e2e2|cdfc A2A2|dedc (3BcB A2|dcBA (3GAG E2|
g2g2e2e2|cdfc A2A2|dedc (3BcB A2|1 d2c2c2(3def:|2 d2c2c4||

